X:1780
T:Polonäs från Ovansjö
R:Polska, Polonäs
Z:Göran Hed 2010-03-22
O:Ovansjö, Gästrikland
M:3/4
L:1/8
K:D
af/2a/2 ge/2g/2f2|fd/2f/2 ec/2e/2 d2|Ad/2c/2 Be/2f/2 gB|
ce/2d/2 cf/2^g/2 ac|d3/2A/2 Bc dF|Ed/2c/2d2D2:|
|:A/2G/2F/2G/2 A/2G/2F/2G/2 A/2G/2F/2A/2|BB/2d/2 cB/2c/2 d2|A/2G/2F/2G/2 A/2G/2F/2G/2 A/2G/2F/2A/2|
BB/2d/2 cB/2c/2 d2|g3/2f/2 fe eg|f3/2e/2 dc B3/2d/2|
B/2c/2d/2B/2 d/2c/2B/2A/2 aA|A/2d/2c/2e/2d4:|
(:musicend:)
(:music:)
